P1
# Derived from C:/Users/Tauser/Downloads/camera.svg.
24 24
000000000000000000000000
000000001111111100000000
000000011111111110000000
000000111100001111000000
000111111111111111111000
001111111111111111111100
011111111111111111111110
011111111111111111111110
011111100000000011111110
011111000111100001111110
011110001111110000111110
011110011000011000111110
011110010000001000111110
011110010000001000111110
011110011000011000111110
011110001111110000111110
011111000111100001111110
011111100000000011111110
011111111111111111111110
001111111111111111111100
000111111111111111111000
000000000000000000000000
000000000000000000000000
000000000000000000000000
