P1
# Derived from C:/Users/Tauser/Downloads/microfone.svg.
24 24
000000001111110000000000
000000111111111100000000
000001111111111110000000
000011111111111111000000
000011111111111111000000
000111111111111111100000
000111111111111111100000
000111110000111111100000
000111110000111111100000
000111110000111111100000
000111111111111111100000
000111111111111111100000
111100000000000000001111
111100000000000000001111
011110000000000000011110
001111000000000000111100
000111100000000001111000
000011111000000111110000
000001111111111111100000
000000111111111111000000
000000001111110000000000
000000001111110000000000
000000001111110000000000
000000001111110000000000
